src/images/participate-bg-top.svg

<?xml version="1.0" encoding="UTF-8"?>
<svg viewBox="0 0 1599 94" version="1.1" xmlns="http://www.w3.org/2000/svg" xmlns:xlink="http://www.w3.org/1999/xlink" preserveAspectRatio="xMidYMid slice">
    <!-- Generator: Sketch 51.2 (57519) - http://www.bohemiancoding.com/sketch -->
    <title>Slice 2</title>
    <desc>Created with Sketch.</desc>
    <defs></defs>
    <g id="Page-2" stroke="none" stroke-width="1" fill="none" fill-rule="evenodd">
        <g id="participate-bg-top" fill-rule="nonzero">
            <g id="Neutral-For-Exchanges">
                <path d="M-0.000188998527,0.305118012 C-0.000188998527,0.305118012 399.218773,84.8535652 798.767648,84.8535652 C1198.97955,84.8535652 1599.52456,21.8634783 1599.52456,21.8634783 L1599.52456,916.487627 C1599.52456,916.487627 1199.64258,814.126783 799.762188,814.126783 C399.8818,814.126783 -0.000188998527,895.403602 -0.000188998527,895.403602 L-0.000188998527,0.305118012 Z" id="Shape-6-copy-3" fill="#8C8C8C"></path>
                <g id="Shape-6" transform="translate(0.000000, 20.869565)" fill="#353535">
                    <g id="path-10-link">
                        <path d="M-0.000188998527,0.993285963 C-0.000188998527,0.993285963 399.218773,70.5584338 798.767648,70.5584338 C1198.97955,70.5584338 1599.52456,0.993285963 1599.52456,0.993285963 L1599.52456,874.533975 C1599.52456,874.533975 1199.64258,785.09282 799.762188,785.09282 C399.8818,785.09282 -0.000188998527,874.533975 -0.000188998527,874.533975 L-0.000188998527,0.993285963 Z" id="path-10"></path>
                    </g>
                </g>
            </g>
        </g>
    </g>
</svg>

<svg preserveAspectRatio="xMidYMid slice" viewBox="0 0 1599 94" xmlns="http://www.w3.org/2000/svg"><g fill="none"><path d="m-.000189.30511801s399.218962 84.54844719 798.767837 84.54844719c400.211902 0 800.756912-62.9900869 800.756912-62.9900869v894.6241487s-399.88198-102.360844-799.762372-102.360844c-399.880388 0-799.762377 81.276819-799.762377 81.276819z" fill="#8c8c8c"/><path d="m-.000189.99328596s399.218962 69.56514784 798.767837 69.56514784c400.211902 0 800.756912-69.56514784 800.756912-69.56514784v873.54068904s-399.88198-89.441155-799.762372-89.441155c-399.880388 0-799.762377 89.441155-799.762377 89.441155z" fill="#353535" transform="translate(0 20.869565)"/></g></svg>
